X: 8
T: Jackie Coleman's
C: Jackie Coleman
Z: leprecawn
S: https://thesession.org/tunes/50#setting48608
R: reel
M: 4/4
L: 1/8
K: Dmaj
dB|:AF~F2 EDB,D|F2 AF BFAF|E2 BE dFBF|ABde fedB|
AF~F2 EDB,D|F2 AF BFAF|E2 BE dFBF|1 ABde fedB:|2 ABde fdde||
|:fddc d2 de|fddc dfaf|eA (3cBA eAfA|eA (3cBA efge|
fddc d2 dc|fddc dfaf|g2 gf gbag|1 (3fga eg fdde:|2 (3fga eg fddB||

